X:1
T:Go Tell It
T:Go Tell It
T:John P. Hillis
T:Laurene Highfield, 1904
T:Public Domain Courtesy of the Cyber Hymnal™
C:John P. Hillis
Z:Public Domain
Z:Courtesy of the Cyber Hymnal™
%%score ( 1 2 ) ( 3 4 )
L:1/8
Q:1/4=95
M:6/8
K:C
V:1 treble 
V:2 treble 
V:3 bass 
V:4 bass 
V:1
 [CE][DF][EG] [Ec][FB][Gc] | [Fd]2 [Fd] [FA]2 c | (z2 F2) A x | (z2 E2) z x | %4
w: 1.~If you have heard that our|God is love, Go|* tell||
w: 2.~If you can sing the dear|Sav- ior’s praise, Go|* sing||
w: 3.~If you can turn o- ther|hearts to God, Go|* do||
 [CE][EG][Ec] [Ge][Gd][Gc] | [GB]>[GB][Gc] [Gd]2 [Gd] | [^Fd]>[Fc][FB] [FA]2 [FB] | G3- G2 z || %8
w: it, go tell it! That He|is reign- ing in Hea-|ven a- bove, Go tell|of *|
w: it, go sing it! Un- to|Him glad- ly your voic-|es now raise, Go sing|of *|
w: it, go do it! Bid them|to fol- low where Je-|sus has trod, Go do|what *|
"^Refrain" [Fd]>[Fd][Fd] [Fd][FA][FB] | [Ec]2 [^DA] [EG]3 | [Fd]>[Fd][Fd] [Fd][FA][FB] | %11
w: His love to- day. * *|||
w: His love to- day. Tell of|a Sav- ior|so kind and true, Tell of|
w: you can to- day. * *|||
 [Ec]2 [^DA] [EG]3 | [CE]>[CE][DF] [EG][DF][CE] | A2 [FB] [Gc]2 [Ad] | [Ge]>[Fd][Ec] [Fd]2 [FB] | %15
w: ||||
w: His love and|His mer- cy, too, Tell of|the good He would|have us do, Go tell|
w: ||||
 [Ec]3- [Ec]2 z |] %16
w: |
w: of *|
w: |
V:2
 x6 | x6 | (B3 F) (DD) | (G3 E) (CC) | x6 | x6 | x6 | G3- G2 x || x6 | x6 | x6 | x6 | x6 | %13
 (CF) x4 | x6 | x6 |] %16
V:3
 [C,G,][C,G,][C,C] [C,G,][D,G,][E,C] | [F,A,]2 [F,A,] [F,D]2 z | z2 [G,D] [G,B,][G,B,] z | %3
 z2 [C,C] [C,G,][C,G,] z | [C,G,][C,C][C,G,] [C,C][D,B,][E,C] | [G,D]>[G,D][G,A,] [G,B,]2 [G,B,] | %6
 [D,A,]>[D,E][D,D] [D,C]2 [D,D] | [G,B,]3- [G,B,]2 z || [G,B,]>[G,B,][G,B,] [G,B,][G,C][G,D] | %9
 [C,C]2 [C,C] [C,C]3 | [G,B,]>[G,B,][G,B,] [G,B,][G,C][G,D] | [C,C]2 [C,C] [C,C]3 | %12
 [C,G,]>[C,G,][C,G,] [C,C][C,G,][C,G,] | (F,C)[D,D] [E,C]2 [F,C] | %14
 [G,C]>[G,B,][G,C] [G,,B,]2 [G,,G,] | [C,G,]3- [C,G,]2 z |] %16
V:4
 x6 | x6 | x6 | x6 | x6 | x6 | x6 | x6 || x6 | x6 | x6 | x6 | x6 | F,2 x4 | x6 | x6 |] %16

